public/images/github-icon.svg

<svg width="24" height="24" viewBox="0 0 24 24" fill="none" xmlns="http://www.w3.org/2000/svg">
<g id="Group 127">
<path id="Vector" d="M9.3228 20V17.5273M4.5 15.5121C4.84371 15.5582 5.17256 15.6818 5.46188 15.8736C5.75121 16.0654 5.99349 16.3205 6.17058 16.6196C6.47917 17.1566 6.98551 17.5505 7.58063 17.7166C8.17575 17.8826 8.77354 17.8952 9.35263 17.5077C9.49805 16.5 10.0487 15.0708 10.0487 15.0708C7.62239 14.8014 5.07675 13.8834 5.07675 9.76248C5.05505 8.68752 5.45088 7.64624 6.18052 6.85886C5.84822 5.93595 5.88746 4.91943 6.2899 4.02508C6.2899 4.02508 7.21469 3.73572 9.27308 5.12267C11.0649 4.64356 12.9504 4.64356 14.7422 5.12267C16.8304 3.73572 17.7254 4.02508 17.7254 4.02508C18.1278 4.91943 18.1671 5.93595 17.8348 6.85886C18.5814 7.63181 18.9987 8.6661 18.9982 9.74253C18.9982 13.8735 16.4327 14.7815 14.0263 15.0509C14.2898 15.3076 14.4933 15.6197 14.6223 15.9647C14.7512 16.3098 14.8024 16.6792 14.7721 17.0465V19.99" stroke="white" stroke-width="2" stroke-linecap="round" stroke-linejoin="round"/>
</g>
</svg>

<svg xmlns="http://www.w3.org/2000/svg" width="24" height="24" fill="none"><path stroke="#fff" stroke-linecap="round" stroke-linejoin="round" stroke-width="2" d="M9.323 20v-2.473M4.5 15.512a2.292 2.292 0 0 1 1.67 1.108c.31.537.816.93 1.41 1.097.596.166 1.194.178 1.773-.21.145-1.007.696-2.436.696-2.436-2.427-.27-4.972-1.188-4.972-5.309A4.149 4.149 0 0 1 6.18 6.86a3.784 3.784 0 0 1 .109-2.834s.925-.29 2.983 1.098a10.57 10.57 0 0 1 5.47 0c2.087-1.387 2.982-1.098 2.982-1.098.403.894.442 1.91.11 2.834a4.148 4.148 0 0 1 1.163 2.884c0 4.13-2.565 5.038-4.972 5.308a2.496 2.496 0 0 1 .746 1.996v2.943"/></svg>
